src/main/resources/icons/RustIcons/method@2x.svg

<svg width="16" height="16" viewBox="0 0 16 16" fill="none" xmlns="http://www.w3.org/2000/svg">
<rect x="1" y="1" width="14" height="14" rx="3" fill="#F98B9E" fill-opacity="0.6"/>
<path fill-rule="evenodd" clip-rule="evenodd" d="M12 8.00001C11.999 7.15001 11.4985 6.00031 9.88163 6.00031C8.69714 6.00031 8 6.60419 8 6.60419C8 6.60419 7.5 6.00031 6.4 6.00031C5.69791 6.00031 5 6.39924 5 6.39924V6.00031H4V11.0003H5V8.00001C5 7.64001 5.25 7.00001 6.2 7.00001C7.15 7.00001 7.499 7.53701 7.5 8.00001V11.0003H8.5V8.00001C8.5 7.64001 8.8 7.00001 9.75 7.00001C10.7 7.00001 11.0041 7.54001 11.0047 8.00001V11.0003H11.9972L12 8.00001Z" fill="#231F20" fill-opacity="0.7"/>
</svg>

<svg width="16" height="16" viewBox="0 0 16 16" fill="none" xmlns="http://www.w3.org/2000/svg"><rect id="frame" width="16" height="16" fill="none"/><rect x="1" y="1" width="14" height="14" rx="3" fill="#F98B9E" fill-opacity=".6"/><path fill-rule="evenodd" clip-rule="evenodd" d="M12 8c-.001-.85-.502-2-2.118-2C8.697 6 8 6.604 8 6.604S7.5 6 6.4 6c-.702 0-1.4.4-1.4.4V6H4v5h1V8c0-.36.25-1 1.2-1s1.299.537 1.3 1v3h1V8c0-.36.3-1 1.25-1s1.254.54 1.255 1v3h.992L12 8z" fill="#231F20" fill-opacity=".7"/></svg>
